markets/BOME.svg

<svg width="42" height="42" viewBox="0 0 42 42" fill="none" xmlns="http://www.w3.org/2000/svg">
<g clip-path="url(#clip0_9309_2873)">
<path d="M21 42C32.598 42 42 32.598 42 21C42 9.40202 32.598 0 21 0C9.40202 0 0 9.40202 0 21C0 32.598 9.40202 42 21 42Z" fill="#50832B"/>
<path d="M21.3199 18.2027C21.3199 18.2027 13.7566 13.5105 8.28516 19.7695C8.28516 19.7613 13.0266 25.9711 21.3199 18.2027Z" fill="white"/>
<path d="M13.3956 22.3371C13.1987 22.3371 13.0019 22.3289 12.805 22.3125C9.79443 22.0664 8.17842 19.991 8.10459 19.9008L7.98975 19.7531L8.11279 19.6137C9.39248 18.1535 10.8854 17.1609 12.5671 16.6605C13.9042 16.2586 15.3644 16.1766 16.8901 16.4062C19.4823 16.8 21.3608 17.9566 21.4429 17.9977L21.689 18.1535L21.4757 18.3504C18.6538 21 15.9386 22.3371 13.3956 22.3371ZM8.58037 19.7695C8.99053 20.2289 10.4753 21.6727 12.846 21.8695C15.3644 22.0746 18.0878 20.8605 20.9343 18.252C20.3354 17.932 18.7604 17.1609 16.7999 16.8656C15.3397 16.6441 13.9534 16.7262 12.6819 17.1117C11.1479 17.5547 9.76982 18.4488 8.58037 19.7695Z" fill="black"/>
<path d="M35.1341 15.0199C35.1341 15.0199 31.697 11.2629 21.7876 18.0961L27.2099 19.4496H30.3353L32.5255 18.7195L34.0349 17.6285L35.1341 15.0199Z" fill="white" stroke="black" stroke-width="0.820312" stroke-miterlimit="10"/>
<path d="M19.9089 18.8836C19.9089 20.1797 18.3339 21.2215 16.3897 21.2215C14.4456 21.2215 12.8706 20.1715 12.8706 18.8836C12.8706 17.5957 14.4456 16.5457 16.3897 16.5457C18.3339 16.5457 19.9089 17.5875 19.9089 18.8836Z" fill="black"/>
<path d="M13.3547 22.6488C12.4524 22.6488 11.5746 22.4848 10.7543 22.1566C9.4008 21.6234 8.07189 20.6145 6.81682 19.1707C6.75119 19.0969 6.66096 18.9902 6.61174 18.8426C6.47229 18.4078 6.74299 17.8254 7.47307 17.0215C8.0801 16.3488 8.77736 15.7828 8.85939 15.7172C9.86838 14.9051 11.0414 14.3965 12.2555 14.257C14.1832 14.0355 16.3488 14.6016 18.6703 15.9305C18.777 15.9879 19.5235 16.4965 20.1551 16.9312C21.6071 17.9402 21.6071 17.9812 21.6317 18.1453L21.6563 18.3012L21.5496 18.416C20.2125 19.7695 18.9246 20.7703 17.6203 21.484C16.2012 22.2551 14.7492 22.6488 13.3547 22.6488ZM13.084 14.8395C12.8215 14.8395 12.5754 14.8559 12.3211 14.8805C11.2301 15.0035 10.1637 15.4629 9.25314 16.2012C9.17932 16.2586 8.51486 16.8 7.94065 17.4398C7.2844 18.1535 7.17775 18.5309 7.21057 18.6457C7.21877 18.6703 7.26799 18.7277 7.2926 18.7605C8.48205 20.1305 9.72072 21.0738 10.984 21.5742C12.9117 22.3371 15.1594 22.1156 17.3086 20.9426C18.4817 20.3027 19.6465 19.4086 20.8606 18.2191C20.2371 17.7516 18.5309 16.5867 18.3586 16.4883C16.4555 15.3891 14.6836 14.8395 13.084 14.8395Z" fill="black"/>
<path d="M26.5539 18.9474C28.0895 18.7093 29.2314 17.8522 29.1044 17.0329C28.9774 16.2136 27.6296 15.7424 26.0939 15.9805C24.5583 16.2185 23.4164 17.0757 23.5435 17.895C23.6705 18.7143 25.0183 19.1854 26.5539 18.9474Z" fill="black" stroke="black" stroke-width="1.14844" stroke-miterlimit="10"/>
<path d="M28.6208 19.8023C27.9563 19.8023 27.2509 19.7531 26.5044 19.6629C24.6505 19.4332 22.813 18.941 21.238 18.5062L21.4103 17.8992C21.2954 17.8664 21.2134 17.9156 21.2134 17.9156C21.4267 17.7844 22.4849 16.5949 23.0017 16.0207C23.379 15.5941 23.5677 15.3891 23.6415 15.3234C25.8071 13.3383 27.7267 12.1488 29.6708 11.5828C30.6388 11.2957 31.5739 11.2055 32.4353 11.2957C32.7634 11.3285 33.395 11.4187 33.9692 11.6238C34.6911 11.8863 35.1177 12.2555 35.2325 12.7312C35.5771 14.1914 35.4868 15.5695 34.9618 16.7262C34.3958 17.9812 33.3458 18.8836 31.9267 19.3348C30.9259 19.6465 29.8349 19.8023 28.6208 19.8023ZM21.9763 18.0551C25.2903 18.9574 28.7356 19.6793 31.7298 18.7277C32.9685 18.334 33.8872 17.5547 34.3794 16.4637C34.847 15.4383 34.929 14.1914 34.6091 12.8707C34.527 12.5344 33.8872 12.0832 32.3532 11.9109C31.5657 11.8289 30.7208 11.9109 29.8267 12.1734C27.9728 12.7148 26.1353 13.8633 24.0435 15.7746C23.986 15.8238 23.7153 16.1273 23.4528 16.4309C23.0919 16.8328 22.6489 17.3332 22.2716 17.7352C22.1649 17.8582 22.0665 17.9648 21.9763 18.0551Z" fill="black"/>
<path d="M28.9653 22.3781C28.9243 22.3945 28.8833 22.4109 28.8505 22.4191C28.4813 22.5422 28.0794 22.534 27.6856 22.534C26.1188 22.5094 24.552 22.4848 22.9852 22.4684C22.2962 22.4602 21.5989 22.452 20.9263 22.5996C19.6712 22.8867 18.613 23.6988 17.522 24.3879C15.8813 25.4133 14.5524 25.4461 12.6903 25.3066C12.3458 25.282 11.993 25.2574 11.6649 25.1344C11.3696 25.0195 11.1153 24.8309 10.8282 24.6996C10.1145 24.3633 9.245 24.3879 8.55594 24.7652C7.86688 25.1426 7.37469 25.8645 7.28445 26.652C7.11219 28.0301 8.14578 29.3262 9.40906 29.9004C10.8364 30.5484 12.4196 30.45 13.9372 30.3926C14.2653 30.3762 14.6016 30.368 14.9134 30.2613C15.1348 30.1875 15.3399 30.0727 15.545 29.9578C16.9231 29.1785 18.3505 28.4566 19.7204 27.6609C20.9509 26.9473 22.1157 26.0367 23.5348 25.7414C24.4946 25.5445 25.4872 25.6512 26.4716 25.6184C27.3247 25.5937 28.2024 25.4625 29.0063 25.7496C29.3098 25.8562 29.597 26.0203 29.9169 26.0285C30.1384 26.0285 30.3516 25.9547 30.5567 25.8645C31.336 25.5445 32.0825 25.1344 32.7716 24.6422C33.395 24.1992 33.9856 23.666 34.3055 22.977C34.6255 22.2797 34.6173 21.3938 34.1251 20.8195C33.6657 20.2863 32.8782 20.1141 32.1891 20.2535C31.5001 20.4012 30.893 20.8113 30.368 21.2953C29.9415 21.6891 29.5149 22.1566 28.9653 22.3781Z" fill="#85492D"/>
<path d="M12.4276 30.7453C11.3612 30.7453 10.2948 30.6469 9.28584 30.1875C8.59677 29.8758 7.98154 29.3672 7.56318 28.7602C7.0956 28.0875 6.89052 27.341 6.98076 26.6191C7.0874 25.7414 7.63701 24.9293 8.41631 24.5027C9.1956 24.0762 10.1718 24.0434 10.9757 24.4207C11.1069 24.4781 11.2218 24.552 11.3448 24.6176C11.5007 24.7078 11.6401 24.7898 11.7878 24.8473C12.0749 24.9539 12.403 24.9785 12.7229 25.0031C14.4292 25.1262 15.7581 25.1344 17.3659 24.1254C17.571 23.9941 17.7761 23.8629 17.9811 23.7316C18.8753 23.1492 19.794 22.5422 20.8686 22.3043C21.5823 22.1402 22.3042 22.1566 23.0015 22.1648L27.7019 22.2305C28.0628 22.2387 28.4401 22.2387 28.7683 22.132C28.8011 22.1238 28.8339 22.1074 28.8667 22.0992C29.2604 21.9434 29.5886 21.6316 29.9331 21.2953C30.0151 21.2133 30.0972 21.1395 30.1874 21.0574C30.8601 20.4422 31.4999 20.0813 32.1561 19.9418C33.0175 19.7613 33.8952 20.0238 34.3956 20.6062C34.9288 21.2379 35.0272 22.2387 34.6253 23.1C34.2397 23.9367 33.5097 24.5191 32.9929 24.8883C32.2874 25.3969 31.5163 25.8152 30.7124 26.1434C30.4909 26.2336 30.2366 26.332 29.9577 26.332H29.9495C29.6542 26.332 29.3917 26.2254 29.1538 26.127C29.08 26.0941 29.0062 26.0695 28.9323 26.0367C28.3417 25.8234 27.7019 25.8645 27.021 25.8973C26.8569 25.9055 26.6847 25.9137 26.5124 25.9219C26.2007 25.9301 25.889 25.9301 25.5772 25.9219C24.8964 25.9137 24.2565 25.9055 23.6249 26.0367C22.5913 26.25 21.6726 26.8324 20.7784 27.3902C20.4913 27.5707 20.2042 27.7512 19.9089 27.9234C19.146 28.3664 18.3585 28.793 17.5874 29.2031C16.9722 29.5312 16.3405 29.8758 15.7335 30.2203C15.5202 30.3434 15.2987 30.4664 15.0444 30.5484C14.6835 30.6633 14.3144 30.6797 13.978 30.6879L13.7401 30.6961C13.289 30.7289 12.8624 30.7453 12.4276 30.7453ZM9.77802 24.7816C9.40888 24.7816 9.04795 24.8719 8.71982 25.0441C8.11279 25.3723 7.68623 26.0039 7.6042 26.693C7.44834 27.9645 8.46552 29.1211 9.54834 29.6133C10.828 30.1957 12.2882 30.1383 13.6991 30.0809L13.937 30.0727C14.2405 30.0645 14.5522 30.048 14.8311 29.9578C15.028 29.8922 15.2085 29.7855 15.4054 29.6789C16.0206 29.3262 16.6604 28.9898 17.2757 28.6535C18.0386 28.2434 18.8261 27.8168 19.5808 27.382C19.8679 27.218 20.155 27.0375 20.4339 26.8652C21.3772 26.2746 22.3452 25.6676 23.4854 25.4297C24.1827 25.282 24.8882 25.2902 25.569 25.2984C25.8644 25.2984 26.1761 25.3066 26.4714 25.2984C26.6354 25.2902 26.7995 25.282 26.9636 25.2738C27.6772 25.2328 28.4155 25.1918 29.121 25.4461C29.203 25.4789 29.2933 25.5117 29.3671 25.5445C29.564 25.6266 29.7526 25.7004 29.9249 25.7004C30.089 25.7004 30.2694 25.6348 30.4417 25.5609C31.2046 25.2492 31.9265 24.8473 32.5909 24.3715C33.0503 24.0434 33.6983 23.5266 34.0183 22.8293C34.3628 22.0828 34.1987 21.3773 33.8788 21C33.5261 20.5898 32.8862 20.4094 32.2464 20.5406C31.705 20.6555 31.1636 20.9672 30.5729 21.5004C30.4909 21.5742 30.4089 21.6562 30.3269 21.7301C29.9495 22.0828 29.564 22.452 29.0636 22.657C29.0144 22.6734 28.9733 22.6898 28.9241 22.7062C28.4976 22.8457 28.0464 22.8375 27.6526 22.8375L22.9522 22.7719C22.2878 22.7637 21.6069 22.7555 20.9671 22.8949C20.0073 23.1164 19.1296 23.6824 18.2847 24.2402C18.0796 24.3715 17.8663 24.5109 17.6612 24.6422C15.8976 25.7496 14.4046 25.7414 12.6409 25.6102C12.2964 25.5855 11.9026 25.5527 11.5253 25.4133C11.3284 25.3395 11.1561 25.241 10.9921 25.1426C10.8772 25.077 10.7788 25.0195 10.6722 24.9703C10.4179 24.8473 10.0979 24.7816 9.77802 24.7816Z" fill="black"/>
<path d="M9.25301 26.0121C9.32684 26.8406 9.87645 27.5297 10.6229 27.8742C11.4268 28.2434 12.3456 28.2598 13.2151 28.1367C14.8393 27.9152 16.3159 27.1441 17.7514 26.4141C19.2034 25.6758 20.7128 24.8965 22.3616 24.7488C23.387 24.6586 24.4206 24.7406 25.4542 24.6914C26.4878 24.6422 27.5214 24.5273 28.5468 24.3387C30.3679 24.0105 32.9436 23.3789 33.0995 21.1148C33.1241 20.7703 32.5827 20.7703 32.5581 21.1148C32.5007 21.9105 31.9347 22.5586 31.2784 22.9523C30.4991 23.4117 29.5804 23.6004 28.7026 23.7727C27.7429 23.9613 26.7749 24.0844 25.8069 24.1418C24.8307 24.1992 23.8546 24.15 22.8784 24.1828C21.287 24.2402 19.8268 24.798 18.4077 25.4871C17.046 26.1516 15.7089 26.9309 14.2487 27.3656C13.4202 27.6117 12.5097 27.7594 11.6401 27.6199C10.8034 27.4805 9.88465 26.9473 9.80262 26.0121C9.76981 25.6676 9.2284 25.6594 9.25301 26.0121Z" fill="black"/>
<path d="M18.6784 18.6129C18.6538 18.6129 18.6374 18.6129 18.6128 18.6129C18.5308 18.6047 18.4488 18.6211 18.3749 18.6621C18.1945 18.7523 18.1042 18.9574 18.1534 19.1543C18.2027 19.3348 18.3667 19.4496 18.539 19.4578C18.6784 19.4906 18.8343 19.4414 18.9327 19.3266C19.0394 19.2117 19.064 19.0559 19.0148 18.9164C18.9902 18.7523 18.8507 18.6211 18.6784 18.6129Z" fill="white"/>
<path d="M18.3422 18.3258C18.6867 18.3422 18.6867 17.8008 18.3422 17.7844C18.0305 17.768 17.7187 17.7516 17.407 17.7434C17.2512 17.7352 17.1445 17.8746 17.1363 18.0141L17.0543 19.1953C17.0297 19.5398 17.5711 19.5398 17.5957 19.1953C17.6121 18.8918 17.6367 18.5965 17.6531 18.293C17.8828 18.3012 18.1125 18.3094 18.3422 18.3258Z" fill="white"/>
<path d="M27.6527 17.2758C27.6609 17.2102 27.6691 17.1363 27.6855 17.0707C27.7183 16.8738 27.587 16.718 27.3902 16.7344C27.2343 16.6441 27.0128 16.6934 26.8734 16.7754C26.496 16.9969 26.4714 17.5055 26.7913 17.7926C26.8652 17.8582 26.9472 17.9074 27.0374 17.932C27.0456 17.932 27.0784 17.9484 27.1112 17.9484C27.0538 18.1125 27.103 18.334 27.2015 18.4652C27.2753 18.5719 27.3902 18.6293 27.5132 18.6375C27.6198 18.6621 27.7511 18.6375 27.8249 18.5309C28.071 18.1945 28.0792 17.7762 27.8987 17.4152C27.8577 17.325 27.7511 17.2758 27.6527 17.2758Z" fill="white"/>
<path d="M27.7676 15.2168C27.7184 15.4055 27.6774 15.5859 27.6282 15.7746C27.5461 16.1109 28.0629 16.2586 28.145 15.9141C28.1942 15.7254 28.2352 15.5449 28.2844 15.3562C28.3747 15.0199 27.8497 14.8805 27.7676 15.2168Z" fill="white"/>
</g>
<defs>
<clipPath id="clip0_9309_2873">
<rect width="42" height="42" fill="white"/>
</clipPath>
</defs>
</svg>

<svg width="42" height="42" fill="none" viewBox="0 0 42 42" xmlns="http://www.w3.org/2000/svg">
  <g clip-path="url(#a)">
    <path fill="#50832B" d="M21 42c11.598 0 21-9.402 21-21S32.598 0 21 0 0 9.402 0 21s9.402 21 21 21"/>
    <path fill="#fff" d="M21.32 18.203S13.757 13.51 8.285 19.77c0-.009 4.742 6.201 13.035-1.567"/>
    <path fill="#000" d="M13.396 22.337q-.295 0-.591-.024c-3.01-.247-4.627-2.322-4.7-2.412l-.115-.148.123-.14c1.28-1.46 2.772-2.452 4.454-2.953 1.337-.401 2.797-.483 4.323-.254 2.592.394 4.47 1.55 4.553 1.592l.246.155-.213.197c-2.822 2.65-5.537 3.987-8.08 3.987M8.58 19.77c.41.459 1.895 1.903 4.266 2.1 2.518.205 5.242-1.01 8.088-3.618-.599-.32-2.174-1.091-4.134-1.386-1.46-.222-2.847-.14-4.118.246-1.534.443-2.912 1.337-4.102 2.658"/>
    <path fill="#fff" stroke="#000" stroke-miterlimit="10" stroke-width=".82" d="M35.134 15.02s-3.437-3.757-13.346 3.076l5.422 1.354h3.125l2.19-.73 1.51-1.091z"/>
    <path fill="#000" d="M19.909 18.884c0 1.296-1.575 2.337-3.52 2.337-1.943 0-3.518-1.05-3.518-2.337s1.575-2.338 3.519-2.338 3.519 1.041 3.519 2.338"/>
    <path fill="#000" d="M13.355 22.649c-.903 0-1.78-.164-2.6-.492-1.354-.534-2.683-1.543-3.938-2.986a.9.9 0 0 1-.205-.328c-.14-.435.131-1.018.861-1.822a13 13 0 0 1 1.386-1.304c1.01-.812 2.182-1.32 3.396-1.46 1.928-.221 4.094.345 6.415 1.674.107.057.853.566 1.485 1 1.452 1.01 1.452 1.05 1.477 1.214l.024.156-.106.115c-1.338 1.354-2.625 2.354-3.93 3.068-1.419.771-2.87 1.165-4.265 1.165m-.271-7.81c-.262 0-.509.017-.763.041-1.09.123-2.157.583-3.068 1.321-.074.058-.738.599-1.312 1.239-.657.713-.763 1.09-.73 1.206.008.024.057.082.082.114 1.189 1.37 2.428 2.314 3.691 2.814 1.928.763 4.175.542 6.325-.631 1.173-.64 2.337-1.534 3.552-2.724a65 65 0 0 0-2.502-1.73c-1.904-1.1-3.675-1.65-5.275-1.65"/>
    <path fill="#000" stroke="#000" stroke-miterlimit="10" stroke-width="1.148" d="M26.554 18.947c1.536-.238 2.677-1.095 2.55-1.914-.127-.82-1.474-1.29-3.01-1.053s-2.678 1.096-2.55 1.915c.127.82 1.474 1.29 3.01 1.052Z"/>
    <path fill="#000" d="M28.62 19.802q-.997-.002-2.116-.14c-1.854-.229-3.691-.721-5.266-1.156l.172-.607c-.115-.033-.197.017-.197.017.214-.132 1.272-1.321 1.789-1.895.377-.427.566-.632.64-.698 2.165-1.985 4.085-3.174 6.029-3.74.968-.287 1.903-.377 2.764-.287.328.033.96.123 1.534.328.722.262 1.149.631 1.264 1.107.344 1.46.254 2.839-.271 3.995-.566 1.255-1.616 2.158-3.035 2.609-1.001.311-2.092.467-3.306.467m-6.644-1.747c3.314.902 6.76 1.624 9.754.673 1.238-.394 2.157-1.173 2.65-2.264.467-1.026.549-2.273.23-3.593-.083-.337-.723-.788-2.257-.96-.787-.082-1.632 0-2.526.262-1.854.542-3.692 1.69-5.783 3.602-.058.049-.329.352-.591.656-.361.402-.804.902-1.181 1.304q-.16.185-.296.32"/>
    <path fill="#85492D" d="M28.965 22.378a1 1 0 0 1-.114.041c-.37.123-.772.115-1.165.115-1.567-.025-3.134-.05-4.7-.066-.69-.008-1.387-.016-2.06.132-1.255.287-2.313 1.099-3.404 1.788-1.64 1.025-2.97 1.058-4.832.919-.344-.025-.697-.05-1.025-.173-.295-.114-.55-.303-.837-.434a2.55 2.55 0 0 0-2.272.065 2.51 2.51 0 0 0-1.272 1.887c-.172 1.378.862 2.674 2.125 3.248 1.427.648 3.01.55 4.528.493.328-.017.665-.025.976-.132a3.7 3.7 0 0 0 .632-.303c1.378-.78 2.806-1.501 4.175-2.297 1.23-.714 2.396-1.624 3.815-1.92.96-.197 1.952-.09 2.937-.123.853-.024 1.73-.155 2.534.132.304.106.591.27.91.279.222 0 .436-.074.64-.165.78-.32 1.527-.73 2.216-1.222.623-.443 1.214-.976 1.534-1.665.32-.697.311-1.583-.18-2.157-.46-.534-1.248-.706-1.937-.567-.689.148-1.296.558-1.821 1.042-.426.394-.853.862-1.403 1.083"/>
    <path fill="#000" d="M12.428 30.745c-1.067 0-2.133-.098-3.142-.558a4.24 4.24 0 0 1-1.723-1.427c-.467-.673-.672-1.419-.582-2.14a2.84 2.84 0 0 1 1.435-2.117 2.87 2.87 0 0 1 2.56-.082c.13.057.246.131.369.197.156.09.295.172.443.23.287.106.615.13.935.155 1.706.123 3.035.131 4.643-.878l.615-.393c.894-.583 1.813-1.19 2.888-1.428.713-.164 1.435-.147 2.133-.14l4.7.066c.36.009.738.009 1.066-.098.033-.008.066-.025.099-.033.393-.156.722-.467 1.066-.804.082-.082.164-.155.254-.238.673-.615 1.313-.976 1.97-1.115.86-.18 1.738.082 2.239.664.533.632.631 1.633.23 2.494-.386.837-1.116 1.42-1.633 1.788a11 11 0 0 1-2.28 1.255c-.222.09-.476.189-.755.189h-.008c-.296 0-.558-.107-.796-.205-.074-.033-.148-.057-.222-.09-.59-.214-1.23-.172-1.911-.14l-.509.025a18 18 0 0 1-.935 0c-.68-.008-1.32-.017-1.952.115-1.034.213-1.952.795-2.847 1.353-.287.18-.574.361-.87.533-.762.443-1.55.87-2.32 1.28a81 81 0 0 0-1.855 1.017 3.6 3.6 0 0 1-.689.328c-.36.115-.73.132-1.066.14l-.238.008c-.451.033-.878.05-1.312.05m-2.65-5.963c-.37 0-.73.09-1.058.262a2.2 2.2 0 0 0-1.116 1.649c-.156 1.271.862 2.428 1.944 2.92 1.28.583 2.74.525 4.151.468l.238-.008c.304-.009.615-.025.894-.115.197-.066.378-.172.574-.28.616-.352 1.255-.688 1.87-1.024.764-.41 1.551-.837 2.306-1.272.287-.164.574-.344.853-.517.943-.59 1.911-1.197 3.051-1.435.698-.148 1.403-.14 2.084-.132.295 0 .607.009.902 0l.493-.024c.713-.041 1.452-.082 2.157.172.082.033.172.066.246.098.197.083.386.156.558.156.164 0 .344-.065.517-.14a10.6 10.6 0 0 0 2.149-1.188c.46-.329 1.107-.845 1.427-1.543.345-.746.18-1.452-.14-1.829-.352-.41-.992-.59-1.632-.46-.541.116-1.082.427-1.673.96-.082.074-.164.156-.246.23-.378.353-.763.722-1.263.927-.05.016-.09.033-.14.05-.426.139-.878.13-1.271.13l-4.7-.065c-.665-.008-1.346-.016-1.986.123-.96.221-1.837.787-2.682 1.345l-.624.402c-1.763 1.108-3.256 1.1-5.02.968-.345-.024-.738-.057-1.116-.197a3 3 0 0 1-.533-.27c-.115-.066-.213-.123-.32-.173a2.1 2.1 0 0 0-.894-.188"/>
    <path fill="#000" d="M9.253 26.012c.074.829.623 1.518 1.37 1.862.804.37 1.723.386 2.592.263 1.624-.222 3.1-.993 4.536-1.723 1.452-.738 2.962-1.518 4.61-1.665 1.026-.09 2.06-.008 3.093-.058a23 23 0 0 0 3.093-.352c1.82-.328 4.397-.96 4.552-3.224.025-.345-.516-.345-.54 0-.058.796-.624 1.444-1.28 1.837-.78.46-1.699.648-2.576.82q-1.442.284-2.896.37c-.976.057-1.952.008-2.929.04-1.591.058-3.051.616-4.47 1.305-1.362.665-2.7 1.444-4.16 1.879-.828.246-1.738.393-2.608.254-.837-.14-1.755-.673-1.837-1.608-.033-.344-.575-.353-.55 0"/>
    <path fill="#fff" d="M18.678 18.613h-.065a.4.4 0 0 0-.238.05.43.43 0 0 0-.222.491.42.42 0 0 0 .386.304.4.4 0 0 0 .394-.131.4.4 0 0 0 .082-.41.36.36 0 0 0-.337-.304m-.336-.287c.345.016.345-.525 0-.542a36 36 0 0 0-.935-.04c-.156-.009-.262.13-.27.27l-.083 1.181c-.024.345.517.345.542 0 .016-.303.04-.599.057-.902.23.008.46.016.69.033m9.31-1.05c.008-.066.016-.14.033-.205.032-.197-.099-.353-.296-.337-.156-.09-.377-.04-.517.041-.377.222-.402.73-.082 1.018a.6.6 0 0 0 .246.139c.009 0 .041.016.074.016a.6.6 0 0 0 .09.517.4.4 0 0 0 .312.172c.107.025.238 0 .312-.106.246-.336.254-.755.074-1.116-.041-.09-.148-.14-.246-.14m.115-2.058c-.05.188-.09.369-.14.558-.082.336.435.484.517.14.05-.19.09-.37.14-.559.09-.336-.435-.476-.517-.14"/>
  </g>
  <defs>
    <clipPath id="a">
      <path fill="#fff" d="M0 0h42v42H0z"/>
    </clipPath>
  </defs>
</svg>
